outputs/icons/audio_video/play_circle_round.svg

<svg xmlns="http://www.w3.org/2000/svg" width="1200" height="1200" fill="none"><g clip-path="url(#a)"><path fill="#000" d="M600 100c-276 0-500 224-500 500s224 500 500 500 500-224 500-500-224-500-500-500M500 775V425c0-20.5 23.5-32.5 40-20l233.5 175c13.5 10 13.5 30 0 40L540 795c-16.5 12.5-40 .5-40-20"/></g><defs><clipPath id="a"><path fill="#fff" d="M0 0h1200v1200H0z"/></clipPath></defs></svg>

<svg width="1200" height="1200" viewBox="0 0 1200 1200" fill="none" xmlns="http://www.w3.org/2000/svg"><g clip-path="url(#clip0_231_5136)"><path d="M600 100C324 100 100 324 100 600C100 876 324 1100 600 1100C876 1100 1100 876 1100 600C1100 324 876 100 600 100ZM500 775V425C500 404.5 523.5 392.5 540 405L773.5 580C787 590 787 610 773.5 620L540 795C523.5 807.5 500 795.5 500 775Z" fill="black"/></g><defs><clipPath id="clip0_231_5136"><path width="24" fill="white" d="M0 0H1200V1200H0V0z"/></clipPath></defs></svg>
